svg/monochrome/anchor.svg

<svg xmlns="http://www.w3.org/2000/svg" viewBox="0 0 24 24"><path class="uim-primary" d="M12 22a8.01 8.01 0 0 1-8-8 1 1 0 0 1 2 0 6 6 0 0 0 12 0 1 1 0 0 1 2 0 8.01 8.01 0 0 1-8 8Z"/><path class="uim-primary" d="M12 22a1 1 0 0 1-1-1V7a1 1 0 0 1 2 0v14a1 1 0 0 1-1 1zm-5-7H5a1 1 0 0 1 0-2h2a1 1 0 0 1 0 2zm12 0h-2a1 1 0 0 1 0-2h2a1 1 0 0 1 0 2z"/><path class="uim-primary" d="M14 11h-4a1 1 0 0 1 0-2h4a1 1 0 0 1 0 2zm-2-3a3 3 0 1 1 3-3 3.003 3.003 0 0 1-3 3zm0-4a1 1 0 1 0 1 1 1.001 1.001 0 0 0-1-1z"/></svg>

<svg xmlns="http://www.w3.org/2000/svg" viewBox="0 0 24 24"><path class="uim-primary" d="M12,22a8.00917,8.00917,0,0,1-8-8,1,1,0,0,1,2,0,6,6,0,0,0,12,0,1,1,0,0,1,2,0A8.00917,8.00917,0,0,1,12,22Z"/><path class="uim-primary" d="M12 22a.99974.99974 0 0 1-1-1V7a1 1 0 0 1 2 0V21A.99974.99974 0 0 1 12 22zM7 15H5a1 1 0 0 1 0-2H7a1 1 0 0 1 0 2zM19 15H17a1 1 0 0 1 0-2h2a1 1 0 0 1 0 2z"/><path class="uim-primary" d="M14 11H10a1 1 0 0 1 0-2h4a1 1 0 0 1 0 2zM12 8a3 3 0 1 1 3-3A3.00328 3.00328 0 0 1 12 8zm0-4a1 1 0 1 0 1 1A1.001 1.001 0 0 0 12 4z"/></svg>
